assets/images/btn_appstore_en_patch.svg

<svg width="127" height="50" viewBox="0 0 127 50" fill="none" xmlns="http://www.w3.org/2000/svg">
<path fill-rule="evenodd" clip-rule="evenodd" d="M122.482 50H4.44876C1.99625 50 0 47.34 0 44.0837V5.9075C0 2.65 1.99625 0 4.44876 0H122.482C124.933 0 127 2.65 127 5.9075V44.0837C127 47.34 124.933 50 122.482 50V50V50Z" fill="#004177"/>
<g opacity="0.7">
<path fill-rule="evenodd" clip-rule="evenodd" d="M39.5493 23.5581C39.5192 20.209 42.2856 18.5797 42.4121 18.5038C40.8454 16.2146 38.417 15.9018 37.5637 15.8769C35.5242 15.6618 33.5458 17.1 32.5069 17.1C31.4472 17.1 29.8473 15.8977 28.123 15.933C25.9041 15.9673 23.8282 17.2548 22.6897 19.2541C20.3402 23.3305 22.0925 29.3211 24.3436 32.6162C25.4696 34.2299 26.7854 36.0318 28.5076 35.9684C30.1926 35.8988 30.8219 34.8918 32.8553 34.8918C34.8699 34.8918 35.4609 35.9684 37.2174 35.9278C39.0257 35.8988 40.1642 34.3068 41.2508 32.6785C42.5521 30.8289 43.0747 29.0073 43.0954 28.9138C43.0529 28.8992 39.5835 27.5722 39.5493 23.5581V23.5581Z" fill="white"/>
<path fill-rule="evenodd" clip-rule="evenodd" d="M36.2313 13.7094C37.1375 12.5737 37.7576 11.0285 37.5855 9.46045C36.2738 9.51864 34.6335 10.3697 33.6889 11.4805C32.8532 12.4594 32.1066 14.0638 32.2995 15.5726C33.7729 15.6827 35.2857 14.8275 36.2313 13.7094V13.7094Z" fill="white"/>
</g>
<path opacity="0.7" d="M53.5469 15.3633V21H55.4414C57.1172 21 58.1016 19.957 58.1016 18.1797C58.1016 16.4062 57.1133 15.3633 55.4414 15.3633H53.5469ZM54.25 15.9961H55.3945C56.6758 15.9961 57.3828 16.7773 57.3828 18.1875C57.3828 19.5859 56.6719 20.3672 55.3945 20.3672H54.25V15.9961ZM62.0664 19.8359C61.9531 20.2188 61.5742 20.4805 61.0586 20.4805C60.3281 20.4805 59.8711 19.9688 59.8711 19.1914V19.1523H62.7852V18.8945C62.7852 17.6641 62.1094 16.8672 61.0117 16.8672C59.8906 16.8672 59.1719 17.7227 59.1719 18.9844C59.1719 20.2617 59.8789 21.0703 61.043 21.0703C61.9297 21.0703 62.6172 20.5469 62.7344 19.8359H62.0664ZM61 17.457C61.6406 17.457 62.0664 17.9414 62.082 18.6211H59.875C59.918 17.9453 60.3633 17.457 61 17.457ZM67.3047 16.9375H66.5977L65.4727 20.2773H65.457L64.3359 16.9375H63.6211L65.1172 21H65.8125L67.3047 16.9375ZM70.918 19.8359C70.8047 20.2188 70.4258 20.4805 69.9102 20.4805C69.1797 20.4805 68.7227 19.9688 68.7227 19.1914V19.1523H71.6367V18.8945C71.6367 17.6641 70.9609 16.8672 69.8633 16.8672C68.7422 16.8672 68.0234 17.7227 68.0234 18.9844C68.0234 20.2617 68.7305 21.0703 69.8945 21.0703C70.7812 21.0703 71.4688 20.5469 71.5859 19.8359H70.918ZM69.8516 17.457C70.4922 17.457 70.918 17.9414 70.9336 18.6211H68.7266C68.7695 17.9453 69.2148 17.457 69.8516 17.457ZM72.8594 21H73.5391V15.3633H72.8594V21ZM76.6406 21.0703C77.7617 21.0703 78.5195 20.2617 78.5195 18.9688C78.5195 17.6719 77.7617 16.8672 76.6406 16.8672C75.5156 16.8672 74.7578 17.6719 74.7578 18.9688C74.7578 20.2617 75.5156 21.0703 76.6406 21.0703ZM76.6406 20.4727C75.9219 20.4727 75.4492 19.9258 75.4492 18.9688C75.4492 18.0117 75.9219 17.4648 76.6406 17.4648C77.3594 17.4648 77.8281 18.0117 77.8281 18.9688C77.8281 19.9258 77.3594 20.4727 76.6406 20.4727ZM81.6797 16.8672C81.0898 16.8672 80.6172 17.168 80.3672 17.625H80.3516V16.9375H79.707V22.3555H80.3867V20.3398H80.4023C80.6445 20.7852 81.1133 21.0703 81.6953 21.0703C82.7188 21.0703 83.418 20.2422 83.418 18.9688C83.418 17.6953 82.7148 16.8672 81.6797 16.8672ZM81.5469 20.4727C80.8516 20.4727 80.3828 19.875 80.3828 18.9688C80.3828 18.0664 80.8516 17.4648 81.5469 17.4648C82.2695 17.4648 82.7227 18.0508 82.7227 18.9688C82.7227 19.8906 82.2695 20.4727 81.5469 20.4727ZM84.6055 21H85.2852V18.4531C85.2852 17.8906 85.6758 17.4688 86.2148 17.4688C86.7188 17.4688 87.0469 17.7891 87.0469 18.2773V21H87.7266V18.418C87.7266 17.8672 88.1055 17.4688 88.6445 17.4688C89.1797 17.4688 89.4883 17.7969 89.4883 18.3516V21H90.168V18.1953C90.168 17.3906 89.6484 16.8672 88.8438 16.8672C88.2734 16.8672 87.7969 17.1562 87.5703 17.6406H87.5547C87.3789 17.1484 86.9688 16.8672 86.4141 16.8672C85.8672 16.8672 85.4531 17.1562 85.2617 17.5859H85.2461V16.9375H84.6055V21ZM94.2305 19.8359C94.1172 20.2188 93.7383 20.4805 93.2227 20.4805C92.4922 20.4805 92.0352 19.9688 92.0352 19.1914V19.1523H94.9492V18.8945C94.9492 17.6641 94.2734 16.8672 93.1758 16.8672C92.0547 16.8672 91.3359 17.7227 91.3359 18.9844C91.3359 20.2617 92.043 21.0703 93.207 21.0703C94.0938 21.0703 94.7812 20.5469 94.8984 19.8359H94.2305ZM93.1641 17.457C93.8047 17.457 94.2305 17.9414 94.2461 18.6211H92.0391C92.082 17.9453 92.5273 17.457 93.1641 17.457ZM96.1367 21H96.8164V18.6094C96.8164 17.9219 97.2344 17.4688 97.875 17.4688C98.5 17.4688 98.8086 17.8281 98.8086 18.4844V21H99.4883V18.3633C99.4883 17.4414 98.9727 16.8672 98.082 16.8672C97.4531 16.8672 97.0195 17.1484 96.793 17.5859H96.7773V16.9375H96.1367V21ZM101.074 15.957V16.9375H100.469V17.4961H101.074V19.9453C101.074 20.7266 101.363 21.0312 102.109 21.0312C102.27 21.0312 102.457 21.0195 102.539 21V20.4297C102.492 20.4375 102.336 20.4492 102.258 20.4492C101.91 20.4492 101.754 20.2812 101.754 19.9102V17.4961H102.543V16.9375H101.754V15.957H101.074ZM53.8164 25.2148C54.0547 25.2148 54.2422 25.0234 54.2422 24.7891C54.2422 24.5508 54.0547 24.3633 53.8164 24.3633C53.582 24.3633 53.3906 24.5508 53.3906 24.7891C53.3906 25.0234 53.582 25.2148 53.8164 25.2148ZM53.4766 30H54.1562V25.9375H53.4766V30ZM55.5742 30H56.2539V27.6094C56.2539 26.9219 56.6719 26.4688 57.3125 26.4688C57.9375 26.4688 58.2461 26.8281 58.2461 27.4844V30H58.9258V27.3633C58.9258 26.4414 58.4102 25.8672 57.5195 25.8672C56.8906 25.8672 56.457 26.1484 56.2305 26.5859H56.2148V25.9375H55.5742V30ZM64.4062 25.8672C63.8164 25.8672 63.3438 26.168 63.0938 26.625H63.0781V25.9375H62.4336V31.3555H63.1133V29.3398H63.1289C63.3711 29.7852 63.8398 30.0703 64.4219 30.0703C65.4453 30.0703 66.1445 29.2422 66.1445 27.9688C66.1445 26.6953 65.4414 25.8672 64.4062 25.8672ZM64.2734 29.4727C63.5781 29.4727 63.1094 28.875 63.1094 27.9688C63.1094 27.0664 63.5781 26.4648 64.2734 26.4648C64.9961 26.4648 65.4492 27.0508 65.4492 27.9688C65.4492 28.8906 64.9961 29.4727 64.2734 29.4727ZM67.332 30H68.0117V27.4688C68.0117 26.8945 68.3555 26.5156 68.8828 26.5156C69.0469 26.5156 69.1914 26.5352 69.2461 26.5547V25.8945C69.1914 25.8867 69.0898 25.8672 68.9727 25.8672C68.4961 25.8672 68.1211 26.1523 67.9883 26.6016H67.9727V25.9375H67.332V30ZM71.7891 30.0703C72.9102 30.0703 73.668 29.2617 73.668 27.9688C73.668 26.6719 72.9102 25.8672 71.7891 25.8672C70.6641 25.8672 69.9062 26.6719 69.9062 27.9688C69.9062 29.2617 70.6641 30.0703 71.7891 30.0703ZM71.7891 29.4727C71.0703 29.4727 70.5977 28.9258 70.5977 27.9688C70.5977 27.0117 71.0703 26.4648 71.7891 26.4648C72.5078 26.4648 72.9766 27.0117 72.9766 27.9688C72.9766 28.9258 72.5078 29.4727 71.7891 29.4727ZM76.5312 31.5312C77.6523 31.5312 78.3672 30.8867 78.3672 29.918V25.9375H77.7188V26.6211H77.707C77.4375 26.1484 76.9609 25.8672 76.3867 25.8672C75.3359 25.8672 74.6562 26.6797 74.6562 27.9531C74.6562 29.2148 75.3359 30.0312 76.3711 30.0312C76.9414 30.0312 77.4219 29.7422 77.6719 29.3008H77.6875V29.9414C77.6875 30.5469 77.2617 30.9531 76.5586 30.9531C76.0508 30.9531 75.6484 30.707 75.5156 30.3359H74.8164C74.9297 31.0273 75.6367 31.5312 76.5312 31.5312ZM76.5078 29.4336C75.8086 29.4336 75.3516 28.8633 75.3516 27.9531C75.3516 27.043 75.8086 26.4648 76.5078 26.4648C77.2148 26.4648 77.6875 27.0586 77.6875 27.9531C77.6875 28.8477 77.2148 29.4336 76.5078 29.4336ZM79.7539 30H80.4336V27.4688C80.4336 26.8945 80.7773 26.5156 81.3047 26.5156C81.4688 26.5156 81.6133 26.5352 81.668 26.5547V25.8945C81.6133 25.8867 81.5117 25.8672 81.3945 25.8672C80.918 25.8672 80.543 26.1523 80.4102 26.6016H80.3945V25.9375H79.7539V30ZM85.2227 28.8359C85.1094 29.2188 84.7305 29.4805 84.2148 29.4805C83.4844 29.4805 83.0273 28.9688 83.0273 28.1914V28.1523H85.9414V27.8945C85.9414 26.6641 85.2656 25.8672 84.168 25.8672C83.0469 25.8672 82.3281 26.7227 82.3281 27.9844C82.3281 29.2617 83.0352 30.0703 84.1992 30.0703C85.0859 30.0703 85.7734 29.5469 85.8906 28.8359H85.2227ZM84.1562 26.457C84.7969 26.457 85.2227 26.9414 85.2383 27.6211H83.0312C83.0742 26.9453 83.5195 26.457 84.1562 26.457ZM87.0586 27.0586C87.0586 27.6445 87.4297 28 88.1953 28.1836L88.8398 28.3398C89.3047 28.4531 89.4648 28.6211 89.4648 28.9141C89.4648 29.2812 89.125 29.5156 88.5742 29.5156C88.0234 29.5156 87.7109 29.293 87.6289 28.8281H86.9492C87.0273 29.5898 87.6211 30.0703 88.5742 30.0703C89.4805 30.0703 90.1484 29.5703 90.1484 28.8633C90.1484 28.2812 89.8516 27.9609 89.0312 27.7617L88.3867 27.6055C87.9336 27.4961 87.7266 27.3047 87.7266 27.0234C87.7266 26.668 88.0547 26.4219 88.5508 26.4219C89.0508 26.4219 89.3633 26.6836 89.4141 27.1094H90.0625C90.0352 26.3906 89.4414 25.8672 88.5508 25.8672C87.6719 25.8672 87.0586 26.3633 87.0586 27.0586ZM91.2852 27.0586C91.2852 27.6445 91.6562 28 92.4219 28.1836L93.0664 28.3398C93.5312 28.4531 93.6914 28.6211 93.6914 28.9141C93.6914 29.2812 93.3516 29.5156 92.8008 29.5156C92.25 29.5156 91.9375 29.293 91.8555 28.8281H91.1758C91.2539 29.5898 91.8477 30.0703 92.8008 30.0703C93.707 30.0703 94.375 29.5703 94.375 28.8633C94.375 28.2812 94.0781 27.9609 93.2578 27.7617L92.6133 27.6055C92.1602 27.4961 91.9531 27.3047 91.9531 27.0234C91.9531 26.668 92.2812 26.4219 92.7773 26.4219C93.2773 26.4219 93.5898 26.6836 93.6406 27.1094H94.2891C94.2617 26.3906 93.668 25.8672 92.7773 25.8672C91.8984 25.8672 91.2852 26.3633 91.2852 27.0586Z" fill="white"/>
</svg>

<svg width="127" height="50" fill="none" xmlns="http://www.w3.org/2000/svg"><path fill-rule="evenodd" clip-rule="evenodd" d="M122.482 50H4.449C1.996 50 0 47.34 0 44.084V5.907C0 2.65 1.996 0 4.449 0h118.033C124.933 0 127 2.65 127 5.907v38.177c0 3.256-2.067 5.916-4.518 5.916z" fill="#004177"/><path d="M39.55 23.558c-.03-3.349 2.736-4.978 2.862-5.054-1.567-2.29-3.995-2.602-4.848-2.627-2.04-.215-4.018 1.223-5.057 1.223-1.06 0-2.66-1.202-4.384-1.167-2.219.034-4.295 1.322-5.433 3.321-2.35 4.076-.598 10.067 1.654 13.362 1.126 1.614 2.441 3.416 4.164 3.352 1.685-.07 2.314-1.076 4.347-1.076 2.015 0 2.606 1.076 4.362 1.036 1.809-.03 2.947-1.621 4.034-3.25 1.301-1.85 1.824-3.67 1.844-3.764-.042-.015-3.511-1.342-3.546-5.356zm-3.319-9.848c.907-1.136 1.527-2.682 1.355-4.25-1.312.059-2.953.91-3.897 2.02-.836.98-1.582 2.584-1.39 4.093 1.474.11 2.987-.745 3.932-1.864z" opacity=".7" fill-rule="evenodd" clip-rule="evenodd" fill="#fff"/><path opacity=".7" d="M53.547 15.363V21h1.894c1.676 0 2.66-1.043 2.66-2.82 0-1.774-.988-2.817-2.66-2.817h-1.894zm.703.633h1.145c1.28 0 1.988.781 1.988 2.191 0 1.399-.711 2.18-1.989 2.18H54.25v-4.37zm7.816 3.84c-.113.383-.492.645-1.007.645-.73 0-1.188-.512-1.188-1.29v-.039h2.914v-.258c0-1.23-.676-2.027-1.773-2.027-1.121 0-1.84.856-1.84 2.117 0 1.278.707 2.086 1.871 2.086.887 0 1.574-.523 1.691-1.234h-.668zM61 17.457c.64 0 1.066.484 1.082 1.164h-2.207c.043-.676.488-1.164 1.125-1.164zm6.305-.52h-.707l-1.125 3.34h-.016l-1.121-3.34h-.715L65.117 21h.695l1.493-4.063zm3.613 2.899c-.113.383-.492.645-1.008.645-.73 0-1.187-.512-1.187-1.29v-.039h2.914v-.258c0-1.23-.676-2.027-1.774-2.027-1.12 0-1.84.856-1.84 2.117 0 1.278.708 2.086 1.871 2.086.887 0 1.575-.523 1.692-1.234h-.668zm-1.066-2.379c.64 0 1.066.484 1.082 1.164h-2.207c.042-.676.488-1.164 1.125-1.164zM72.859 21h.68v-5.637h-.68V21zm3.782.07c1.12 0 1.878-.808 1.878-2.101 0-1.297-.757-2.102-1.878-2.102-1.125 0-1.883.805-1.883 2.102 0 1.293.758 2.101 1.883 2.101zm0-.597c-.72 0-1.192-.547-1.192-1.504s.473-1.504 1.192-1.504c.718 0 1.187.547 1.187 1.504s-.469 1.504-1.187 1.504zm5.039-3.606c-.59 0-1.063.301-1.313.758h-.015v-.688h-.645v5.418h.68V20.34h.015c.242.445.711.73 1.293.73 1.024 0 1.723-.828 1.723-2.101 0-1.274-.703-2.102-1.738-2.102zm-.133 3.606c-.695 0-1.164-.598-1.164-1.504 0-.903.469-1.504 1.164-1.504.722 0 1.176.586 1.176 1.504 0 .922-.454 1.504-1.176 1.504zm3.059.527h.68v-2.547c0-.562.39-.984.929-.984.504 0 .832.32.832.808V21h.68v-2.582c0-.55.379-.95.917-.95.536 0 .844.329.844.884V21h.68v-2.805c0-.804-.52-1.328-1.324-1.328-.57 0-1.047.29-1.274.774h-.015c-.176-.493-.586-.774-1.14-.774-.548 0-.962.29-1.153.719h-.016v-.648h-.64V21zm9.625-1.164c-.114.383-.493.645-1.008.645-.73 0-1.188-.512-1.188-1.29v-.039h2.914v-.258c0-1.23-.676-2.027-1.773-2.027-1.121 0-1.84.856-1.84 2.117 0 1.278.707 2.086 1.871 2.086.887 0 1.574-.523 1.691-1.234h-.667zm-1.067-2.379c.64 0 1.067.484 1.082 1.164H92.04c.043-.676.488-1.164 1.125-1.164zM96.137 21h.68v-2.39c0-.688.417-1.141 1.058-1.141.625 0 .934.36.934 1.015V21h.68v-2.637c0-.922-.516-1.496-1.407-1.496-.629 0-1.063.281-1.289.719h-.016v-.648h-.64V21zm4.937-5.043v.98h-.605v.56h.605v2.448c0 .782.289 1.086 1.035 1.086.161 0 .348-.011.43-.031v-.57c-.047.008-.203.02-.281.02-.348 0-.504-.169-.504-.54v-2.414h.789v-.558h-.789v-.981h-.68zm-47.258 9.258a.424.424 0 00.426-.426.422.422 0 00-.426-.426.427.427 0 000 .852zM53.476 30h.68v-4.063h-.68V30zm2.098 0h.68v-2.39c0-.688.418-1.141 1.059-1.141.624 0 .933.36.933 1.015V30h.68v-2.637c0-.922-.516-1.496-1.407-1.496-.628 0-1.062.281-1.288.719h-.016v-.648h-.64V30zm8.832-4.133c-.59 0-1.062.301-1.312.758h-.016v-.688h-.644v5.418h.68V29.34h.015c.242.445.71.73 1.293.73 1.023 0 1.722-.828 1.722-2.101 0-1.274-.703-2.102-1.738-2.102zm-.133 3.606c-.695 0-1.164-.598-1.164-1.504 0-.903.47-1.504 1.164-1.504.723 0 1.176.586 1.176 1.504 0 .922-.453 1.504-1.176 1.504zm3.059.527h.68v-2.531c0-.575.344-.953.87-.953.165 0 .31.02.364.039v-.66c-.055-.008-.156-.028-.273-.028a.995.995 0 00-.985.735h-.015v-.665h-.641V30zm4.457.07c1.121 0 1.879-.808 1.879-2.101 0-1.297-.758-2.102-1.879-2.102-1.125 0-1.883.805-1.883 2.102 0 1.293.758 2.101 1.883 2.101zm0-.597c-.719 0-1.191-.547-1.191-1.504s.472-1.504 1.191-1.504c.719 0 1.188.547 1.188 1.504s-.47 1.504-1.188 1.504zm4.742 2.058c1.121 0 1.836-.644 1.836-1.613v-3.98h-.648v.683h-.012a1.477 1.477 0 00-1.32-.754c-1.051 0-1.73.813-1.73 2.086 0 1.262.679 2.078 1.714 2.078.57 0 1.05-.289 1.3-.73h.016v.64c0 .606-.425 1.012-1.128 1.012-.508 0-.91-.246-1.043-.617h-.7c.114.691.82 1.195 1.715 1.195zm-.023-2.097c-.7 0-1.156-.57-1.156-1.48 0-.911.457-1.49 1.156-1.49.707 0 1.18.595 1.18 1.49 0 .894-.473 1.48-1.18 1.48zm3.246.566h.68v-2.531c0-.575.343-.953.87-.953.165 0 .31.02.364.039v-.66c-.055-.008-.156-.028-.274-.028a.995.995 0 00-.984.735h-.016v-.665h-.64V30zm5.469-1.164c-.114.383-.492.645-1.008.645-.73 0-1.188-.512-1.188-1.29v-.039h2.914v-.258c0-1.23-.675-2.027-1.773-2.027-1.121 0-1.84.856-1.84 2.117 0 1.278.707 2.086 1.871 2.086.887 0 1.574-.523 1.692-1.234h-.668zm-1.067-2.379c.64 0 1.067.484 1.082 1.164h-2.207c.043-.676.488-1.164 1.125-1.164zm2.903.602c0 .585.37.941 1.136 1.125l.645.156c.465.113.625.281.625.574 0 .367-.34.602-.89.602-.552 0-.864-.223-.946-.688h-.68c.078.762.672 1.242 1.625 1.242.907 0 1.574-.5 1.574-1.207 0-.582-.296-.902-1.117-1.101l-.644-.157c-.453-.109-.66-.3-.66-.582 0-.355.328-.601.824-.601.5 0 .812.262.863.687h.648c-.027-.718-.62-1.242-1.511-1.242-.88 0-1.492.496-1.492 1.192zm4.226 0c0 .585.371.941 1.137 1.125l.644.156c.465.113.625.281.625.574 0 .367-.34.602-.89.602-.551 0-.864-.223-.945-.688h-.68c.078.762.672 1.242 1.625 1.242.906 0 1.574-.5 1.574-1.207 0-.582-.297-.902-1.117-1.101l-.645-.157c-.453-.109-.66-.3-.66-.582 0-.355.328-.601.824-.601.5 0 .813.262.864.687h.648c-.027-.718-.621-1.242-1.512-1.242-.879 0-1.492.496-1.492 1.192z" fill="#fff"/></svg>
